svgs/sharp-thin/tv-retro.svg

<svg xmlns="http://www.w3.org/2000/svg" viewBox="0 0 512 512"><!--! Font Awesome Pro 6.6.0 by @fontawesome - https://fontawesome.com License - https://fontawesome.com/license (Commercial License) Copyright 2024 Fonticons, Inc. --><path d="M141 1.8l115 92 115-92 10 12.5L278.8 96 496 96l16 0 0 16 0 384 0 16-16 0L16 512 0 512l0-16L0 112 0 96l16 0 217.2 0L131 14.2 141 1.8zM256 112L16 112l0 384 480 0 0-384-240 0zm112 64L80 176l0 256 288 0 0-256zM80 160l288 0 16 0 0 16 0 256 0 16-16 0L80 448l-16 0 0-16 0-256 0-16 16 0zm360 48a8 8 0 1 0 -16 0 8 8 0 1 0 16 0zm-32 0a24 24 0 1 1 48 0 24 24 0 1 1 -48 0zm24 72a8 8 0 1 0 0-16 8 8 0 1 0 0 16zm0-32a24 24 0 1 1 0 48 24 24 0 1 1 0-48z"/></svg>

<svg xmlns="http://www.w3.org/2000/svg" viewBox="0 0 512 512"><!--! Font Awesome Pro 6.5.2 by @fontawesome - https://fontawesome.com License - https://fontawesome.com/license (Commercial License) Copyright 2024 Fonticons, Inc. --><path d="M141 1.8l115 92 115-92 10 12.5L278.8 96H496h16v16V496v16H496 16 0V496 112 96H16 233.2L131 14.2 141 1.8zM256 112H16V496H496V112H256zm112 64H80V432H368V176zM80 160H368h16v16V432v16H368 80 64V432 176 160H80zm360 48a8 8 0 1 0 -16 0 8 8 0 1 0 16 0zm-32 0a24 24 0 1 1 48 0 24 24 0 1 1 -48 0zm24 72a8 8 0 1 0 0-16 8 8 0 1 0 0 16zm0-32a24 24 0 1 1 0 48 24 24 0 1 1 0-48z"/></svg>
